X:2
T:Fantasy \`a 5 VdGS No. 7
C:Richard Deering
%%score [1 2 3 4 5]
L:1/4
M:4/2
K:C
V:1 clef=treble 
V:2 clef=treble 
V:3 clef=alto 
V:4 clef=alto 
V:5 clef=bass
V:1
 Z3 | e4 A3 d | ^c B c2 d4 | e4 f3 e/d/ | e4 z4 | z4 z2 d2 | a3 g f e d2 | e4 A2 d2- | %10
 d2 c2 B2 ^c2- | c2 B4 _B2 | =B8 | Z3 | z2 e4 d2 | ^c4 ^d2 e2- | e2 ^d2 e4 | d3 e ^f4 | %20
 e4 z4 | Z2 | z2 g4 f2 | e2 e4 d2- | d2 c2 B3 c | d c A2 B2 ^c d | e3 d =c2 d2 | e4 z4 | %29
 z4 z2 e2- | e2 d2 ^c4 | f4 e4 | d4 z4 | Z6 | z2 e4 ^f2 | g f e d c B A2 | %41
 B4 A2 A d | d2 B2 A4 | z8 | z2 d2 e4 | f e d c B G g2- | g f f e/d/ e4 | d2 z f f f e2- | %48
 e a g e f2 e2 | z2 z f e/f/g/f/ e d | ^c2 z a e/f/g/f/ e d | ^c2 z a2 g/f/ e2 | d4 z4 | z2 e4 f2 | %54
 e4 ^f2 g2- | g2 f2 e4 | Z2 | z4 z2 d2- | d2 e2 d4 | e2 f4 e2 | f4 z4 | z8 | z2 e4 A2 | %64
 A4 f4 | e4 z4 | z2 a4 g f |[M:6/2] e3 d ^c2 d2 e4 |[M:4/2] d8 |]
V:2
 Z4 | A4 D3 d | ^c B c2 d2 d2 | a3 g f e d2 | e g/f/e/d/ e d4 | e2 A2 A3 G/F/ | %9
 E4 F4 | E6 G2 | ^F8 | z8 | z4 z2 e2- | e2 d2 ^c4 | ^d2 e4 d2 | e4 A4 | A3 G ^F2 E2 | %18
 G2 ^F2 E2 G2 | ^F4 z2 d2- | d2 c2 B2 B2- | B2 A4 ^G2 | A4 G4 | z8 | z2 a4 f2 | e8 | A2 d c B2 A2 | %27
 B4 z4 | z4 z2 e2- | e2 d2 ^c4 | A4 A4- | A2 F G A4 | A2 z A A d ^c3/2 B/ | c d e f2 e f2 | %34
 z2 z f/f/ e d ^c3/2 f/ | e/f/d/e/ ^c a g f e2 | d3/2 d/ c _B A d ^c3/2 d/ | %37
 e d/c/ B d3/2 d/ c B2 | ^c3 d e2 ^d2 | e4 A4 | B4 A4 | z2 e4 ^f2 | g f e d c B A2- | %43
 A2 ^G2 A2 c2 | A8 | Z2 | z2 z d d d ^c2- | c f/e/ d ^c d2 c2 | z4 z2 z f | %50
 e/f/g/f/ e d ^c2 z a | e/f/g/f/ e d ^c d2 c | d2 A4 B2 | c4 A4- | A4 z4 | z4 z2 B2- | B2 c2 B4 | %57
 ^c2 d4 c2 | d4 z4 | Z2 | z4 z2 c2 | _B4 A4 | A8 | z4 z2 A2- | A2 G F E4 | z4 z2 A2 | %67
[M:6/2] A2 G F E2 A2 A4 |[M:4/2] A8 |]
V:3
 Z2 | A4 D3 D | ^C B, C2 D2 F2 | E D E2 F4 | E4 D4 | z4 z2 D2 | A3 G F E D2 | ^C4 D3 d | %9
 ^c B c2 d2 D2 | z4 z2 E2- | E2 D2 ^C4 | ^D2 E4 D2 | E3 D/C/ B,2 E2 | C2 F2 E2 A G | ^F2 G2 F4 | %16
 E2 G2 =F4 | E4 z4 | z8 | z4 z2 B,2 | ^G,2 A,2 B,2 E2 | ^C2 D2 E2 z2 | z2 F4 E2 | D2 E4 D2- | %24
 D2 ^C2 D E F G | A4 E4 | D4 z4 | z2 B,2 C2 A,2 | ^G,2 A,2 G,2 B,2 | E2 F G A4 | A,4 z2 A,2 | %31
 ^C2 D2 E4 | ^F2 z =F F F E3/2 D/ | E F G A G2 A2 | G F/F/ E D ^C F/F/ E A | G/A/F/G/ E F E D2 ^C | %36
 D _B A G F3/2 G/ A2 | E ^F ^G F G A2 G | A2 A3 G ^F2 | E4 F G A2- | A2 ^G2 A E/D/ C2 | %41
 B,2 ^G,2 A,4 | z4 z2 A2 | B4 c B A G | F E D2 ^C4 | D6 E2- | E2 D4 ^C2 | D2 z A A A A2- | %48
 A A _B A F G A2- | A F E D ^C3 D | E3 F E3 F | E2 ^C D E D E2 | ^F4 F3 G | A4 E2 D2 | E4 A2 B2- | %55
 B2 A4 ^G2 | E4 z2 E2- | E2 F2 E4 | ^F2 G4 F2 | G4 G,4 | C,4 C4- | C2 D2 C4 | D2 G4 F2 | E6 D2 | %64
 ^C6 D2 | A,4 z2 A2- | A2 G F E2 D2 |[M:6/2] ^C2 D2 E2 D4 C2 |[M:4/2] D8 |]
V:4
 D4 A,3 D | ^C B, C2 D4 | A,2 E2 F3 E/D/ | E D E2 F2 D2 | A,4 z2 D2 | A3 G F E D C/_B,/ | %6
 A,4 D,3 D | ^C B, C2 D =C _B,2 | A, G, F, E, D,4 | z4 A,2 B,2- | B,2 A,2 ^G,2 z2 | z4 z2 ^C2 | %12
 ^F2 G2 F4 | E2 A,2 ^G,4 | A,4 z4 | z2 B,2 B,3 A, | ^G,2 E,2 F,3 =G, | A,4 B,2 C2 | B,4 E,2 C,2 | %19
 D,8 | E,8 | A,3 B, C2 B,2 | A,4 B,2 C2- | C2 B,2 ^C2 D2 | E2 A,2 _B, C D2 | A,4 z4 | z2 D4 C2 | %27
 B,2 E4 D2- | D2 C2 B,2 ^G,2 | A,2 D2 E4 | F4 E4- | E2 D4 ^C2 | D2 z D D D A,2- | %33
 A, D C A, _B, C F, F/F/ | E D ^C D A,3 A, | C D A, F, G,2 A,2 | _B,2 C2 D B, A,3/2 =B,/ | %37
 ^C D E D E4 | A,4 z4 | z8 | z2 E4 ^F2 | G F E D C B, A,2 | B,2 ^G,2 A, E2 ^F | G F E D C2 E2 | %44
 D2 F2 E4 | A G F E D2 B,2 | ^C2 D2 E4 | ^F2 z D D D A,2- | A, F, G, A, D,2 A,2- | %49
 A, D ^C D A,2 A, F,/G,/ | A,3 F, A,3 D | A,3 F, A, _B, G, A, | D,2 D4 D2 | A,3 B, ^C2 D2- | %54
 D2 ^C2 D2 D2- | D C A,2 C2 B,2- | B,2 A,4 ^G,2 | z4 z2 A,2- | A,2 _B,2 A,4 | =B,2 C4 =B,2 | %60
 C4 C,4 | F,2 D,3/2 E,/ F,4 | z4 z2 D2- | D2 ^C B, C2 F2 | E6 D2 | ^C8 | C2 D2 A,4 | %67
[M:6/2] z2 A4 G F E4 |[M:4/2] ^F8 |]
V:5
 z8 | A,4 D,3 D, | ^C, B,, C,2 D,3 =C,/_B,,/ | A,,4 D,4 | z8 | A,4 D,3 D | ^C B, C2 D3 =C/_B,/ | %7
 A, G, A,2 D,4 | z4 z2 D,2 | A,3 G, F, E, D,2 | E,8 | ^F,8 | B,,8 | ^C,3 D, E,4 | F,3 G, A,4 | %15
 B,4 B,,4 | E,4 z4 | z8 | z4 z2 C2- | C2 B,2 A,2 B,2- | B,2 A,4 ^G,2 | A,2 F,2 E,4 | F,4 G,4- | %23
 G,4 A,4- | A,4 z4 | z2 A,4 ^G,2 | ^F,4 ^G,2 A,2- | A,2 ^G,2 A,2 F,2 | E,8 | ^C,2 D,2 A,3 G, | %30
 F, E, F, G, A,4 | A,,8 | D,4 z4 | Z5 | z2 A,4 B,2 | C B, A, G, F, E, D, C, | %40
 B,,2 E,2 A,,4 | E,4 A,,2 D,2 | B,,2 E,2 A,3 G,/^F,/ | E,4 A,,3 B,,/C,/ | D,2 D,2 A, G, F, E, | %45
 D,4 G,4 | A,4 A,,4 | D,4 z4 | Z4 | z2 D,4 B,,2 | A,,8 | A,4 D,2 B,, C, | D,4 E,4- | %56
 E,2 A,,2 E,4 | A,,8 | D, C, _B,, C, D,4 | G,4 z2 G,2- | G,2 A,2 G,4 | A,2 _B,4 A,2 | _B,3 C D4 | %63
 A,4 A,,4- | A,,8 | z2 A,4 G, F, | E,2 D,2 ^C,2 D,2 |[M:6/2] A,,2 D,2 A,4 A,,4 |[M:4/2] D,8 |]

